!! 00000] TT[WS
!!!OTL: Yuanyuan liaojian nashi shui
!!!ARE: Asia, China, Shanxi Hequ
!! Ethnic Group: Han
!! WII, 21 (1)
!!!SCT: J0425
!!!YEM: Copyright 1995, estate of Helmut Schaffrath.
**kern
*ICvox
*Ivox
*M2/4
*k[b-e-a-d-]
*A-:
{8.fff
16eee-
8ccc
8ccc
=1
8ccc
8bb-
8aa-
8ff
=2
8bb-
4bb-
8aa-
=3
2cc}
=4
{8.fff
16eee-
8ccc
8ccc
=5
8ccc
8bb-
8aa-
8ee-
=6
8ee-
8bb-
4aa-
=7
2ff}
==
!!!AGN: Shange, Shanqu. Qingge
!!!ONB: ESAC (Essen Associative Code) Database: CHINA
!!!AMT: simple duple
!!!AIN: vox
!!!EED: Helmut Schaffrath
!!!EEV: 1.0
*-
